bundles/org.openhab.ui.iconset.classic/src/main/resources/icons/poweroutlet_eu.svg

<?xml version="1.0" encoding="UTF-8"?>
<svg enable-background="new 0 0 64 64" viewBox="0 0 64 64" xmlns="http://www.w3.org/2000/svg" xmlns:xlink="http://www.w3.org/1999/xlink">
 <defs>
  <circle id="b" cx="32" cy="32" r="27"/>
  <clipPath id="a">
   <use xlink:href="#b"/>
  </clipPath>
 </defs>
 <path d="M32,59.5C16.8,59.5,4.5,47.2,4.5,32S16.8,4.5,32,4.5S59.5,16.8,59.5,32S47.2,59.5,32,59.5z" fill="#ebebeb"/>
 <path d="m32 5c14.9 0 27 12.1 27 27s-12.1 27-27 27-27-12.1-27-27 12.1-27 27-27m0-1c-15.4 0-28 12.6-28 28s12.6 28 28 28 28-12.6 28-28-12.6-28-28-28z" fill="#c8c8c8"/>
 <g fill="#212121" stroke="#dcdcdc" stroke-miterlimit="10">
  <circle cx="22" cy="32" r="3.5"/>
  <circle cx="42" cy="32" r="3.5"/>
 </g>
 <g fill="#8c8c8c">
  <path d="m30 5h4v4.9h-4z" clip-path="url(#a)"/>
  <path d="m30 54h4v4.9h-4z" clip-path="url(#a)"/>
 </g>
 <g clip-path="url(#a)">
  <path d="m-.5 34.5h11v29h-11z" fill="#f5f5f5"/>
  <path d="m10 35v28h-10v-28h10m1-1h-12v30h12v-30z" fill="#c8c8c8"/>
  <path d="m-.5.5h11v29h-11z" fill="#f5f5f5"/>
  <path d="m10 1v28h-10v-28h10m1-1h-12v30h12v-30z" fill="#c8c8c8"/>
 </g>
 <g clip-path="url(#a)">
  <path d="m53.5 34.5h11v29h-11z" fill="#f5f5f5"/>
  <path d="m64 35v28h-10v-28h10m1-1h-12v30h12v-30z" fill="#c8c8c8"/>
  <path d="m53.5.5h11v29h-11z" fill="#f5f5f5"/>
  <path d="m64 1v28h-10v-28h10m1-1h-12v30h12v-30z" fill="#c8c8c8"/>
 </g>
</svg>

<svg viewBox="0 0 64 64" xmlns="http://www.w3.org/2000/svg" xmlns:xlink="http://www.w3.org/1999/xlink"><defs><clipPath id="b"><use xlink:href="#a"/></clipPath><circle id="a" cx="32" cy="32" r="27"/></defs><path d="M32 59.5C16.8 59.5 4.5 47.2 4.5 32S16.8 4.5 32 4.5 59.5 16.8 59.5 32 47.2 59.5 32 59.5z" fill="#ebebeb"/><path d="M32 5c14.9 0 27 12.1 27 27S46.9 59 32 59 5 46.9 5 32 17.1 5 32 5m0-1C16.6 4 4 16.6 4 32s12.6 28 28 28 28-12.6 28-28S47.4 4 32 4z" fill="#c8c8c8"/><g fill="#212121" stroke="#dcdcdc" stroke-miterlimit="10"><circle cx="22" cy="32" r="3.5"/><circle cx="42" cy="32" r="3.5"/></g><g fill="#8c8c8c"><path d="M30 5h4v4.9h-4zM30 54h4v4.9h-4z" clip-path="url(#b)"/></g><g clip-path="url(#b)"><path d="M-.5 34.5h11v29h-11z" fill="#f5f5f5"/><path d="M10 35v28H0V35h10m1-1H-1v30h12V34z" fill="#c8c8c8"/><path d="M-.5.5h11v29h-11z" fill="#f5f5f5"/><path d="M10 1v28H0V1h10m1-1H-1v30h12V0z" fill="#c8c8c8"/></g><g clip-path="url(#b)"><path d="M53.5 34.5h11v29h-11z" fill="#f5f5f5"/><path d="M64 35v28H54V35h10m1-1H53v30h12V34z" fill="#c8c8c8"/><path d="M53.5.5h11v29h-11z" fill="#f5f5f5"/><path d="M64 1v28H54V1h10m1-1H53v30h12V0z" fill="#c8c8c8"/></g></svg>
